M31 A24
;Generated with Cura_SteamEngine 15.04.4
;startGCode
M109 S190
M300
M206 X500
M107
G28
G92 E
G1 X-98.0 Y-20.0 Z5.0 F3000
G1 Y-70.0 Z0.3
G1 X-98.0 Y44.0 F500 E27
G92 E

;BEESOFT SPECIFIC
M642 W1.0


;Layer count: 26
;LAYER:0
M107
G0 F6000 X17.970 Y-9.780 Z0.300
G0 X21.231 Y-9.917
;TYPE:FILL
G1 F1200 X21.525 Y-10.211 E0.02074
G0 F6000 X22.201 Y-10.351
;TYPE:WALL-INNER
G1 F1200 X22.631 Y-10.337 E0.04221
G1 X23.090 Y-10.275 E0.06532
G1 X23.906 Y-10.095 E0.10700
G1 X23.989 Y-10.064 E0.11142
G1 X23.564 Y-9.944 E0.13346
G1 X22.724 Y-9.804 E0.17594
G1 X22.505 Y-9.778 E0.18695
G1 X22.368 Y-9.779 E0.19378
G1 X19.075 Y-9.777 E0.35807
G1 X19.075 Y-9.798 E0.35912
G1 X17.918 Y-9.839 E0.41688
G1 X17.838 Y-8.720 E0.47285
G1 X17.752 Y-7.900 E0.51398
G1 X17.600 Y-6.945 E0.56222
G1 X17.487 Y-6.416 E0.58921
G1 X17.268 Y-5.550 E0.63378
G1 X17.057 Y-4.868 E0.66939
G1 X16.809 Y-4.180 E0.70588
G1 X16.501 Y-3.443 E0.74573
G1 X16.201 Y-2.814 E0.78050
G1 X15.952 Y-2.335 E0.80743
G1 X15.534 Y-1.615 E0.84897
G1 X15.125 Y-0.993 E0.88611
G1 X14.698 Y-0.408 E0.92224
G1 X14.373 Y0.008 E0.94858
G1 X14.361 Y0.021 E0.94946
G1 X14.361 Y-3.958 E1.14797
G1 X13.472 Y-4.197 E1.19390
G1 X12.961 Y-3.314 E1.24480
G1 X12.317 Y-2.345 E1.30284
G1 X11.921 Y-1.832 E1.33518
G1 X11.473 Y-1.313 E1.36938
G1 X11.028 Y-0.825 E1.40233
G1 X11.028 Y2.978 E1.59206
G1 X10.375 Y3.367 E1.62998
G1 X10.095 Y3.512 E1.64572
G1 X10.095 Y0.826 E1.77972
G1 X9.477 Y0.483 E1.81498
G1 X8.678 Y0.982 E1.86198
G1 X8.175 Y1.260 E1.89065
G1 X7.713 Y1.487 E1.91633
G1 X6.761 Y1.890 E1.96791
G1 X6.761 Y6.708 E2.20828
G1 X7.789 Y7.151 E2.26413
G1 X8.438 Y7.494 E2.30075
G1 X9.058 Y7.887 E2.33737
G1 X9.684 Y8.354 E2.37634
G1 X10.257 Y8.860 E2.41448
G1 X10.768 Y9.390 E2.45121
G1 X11.269 Y10.000 E2.49059
G1 X11.689 Y10.607 E2.52741
G1 X12.064 Y11.249 E2.56451
G1 X12.394 Y11.937 E2.60257
G1 X12.668 Y12.649 E2.64064
G1 X12.879 Y13.367 E2.67797
G1 X13.028 Y14.080 E2.71431
G1 X13.123 Y14.828 E2.75193
G1 X13.160 Y15.612 E2.79109
G1 X13.163 Y15.665 E2.79374
G1 X13.155 Y16.049 E2.81290
G1 X13.100 Y16.739 E2.84743
G1 X12.982 Y17.501 E2.88590
G1 X12.806 Y18.235 E2.92356
G1 X12.567 Y18.962 E2.96174
G1 X12.270 Y19.669 E3.00000
G1 X11.920 Y20.342 E3.03784
G1 X11.511 Y20.991 E3.07611
G1 X11.048 Y21.613 E3.11480
G1 X10.541 Y22.185 E3.15293
G1 X10.002 Y22.704 E3.19026
G1 X9.401 Y23.198 E3.22908
G1 X8.794 Y23.618 E3.26590
G1 X8.152 Y23.993 E3.30300
G1 X7.464 Y24.323 E3.34106
G1 X6.752 Y24.597 E3.37913
G1 X5.977 Y24.823 E3.41940
G1 X5.323 Y24.956 E3.45270
G1 X4.571 Y25.052 E3.49052
G1 X4.336 Y25.063 E3.50226
G1 X4.336 Y23.398 E3.58532
G1 X3.162 Y24.032 E3.65189
G1 X2.518 Y24.334 E3.68738
G1 X1.789 Y24.611 E3.72628
G1 X1.765 Y24.621 E3.72758
G1 X1.110 Y24.809 E3.76158
G1 X0.360 Y24.964 E3.79979
G1 X-0.374 Y25.056 E3.83669
G1 X-0.571 Y25.065 E3.84653
G1 X-0.571 Y6.266 E4.78442
G1 X-0.174 Y6.291 E4.80426
G1 X0.562 Y6.399 E4.84137
G1 X1.561 Y6.598 E4.89219
G1 X1.561 Y2.464 E5.09844
G1 X0.175 Y2.448 E5.16759
G1 X-1.771 Y2.449 E5.26468
G1 X-1.771 Y4.953 E5.38960
G1 X-10.774 Y4.952 E5.83876
G1 X-11.459 Y4.934 E5.87295
G1 X-12.178 Y4.873 E5.90895
G1 X-12.850 Y4.778 E5.94281
G1 X-13.385 Y4.678 E5.96996
G1 X-14.129 Y4.495 E6.00819
G1 X-14.814 Y4.283 E6.04396
G1 X-15.462 Y4.039 E6.07851
G1 X-15.942 Y3.835 E6.10453
G1 X-16.628 Y3.501 E6.14259
G1 X-17.246 Y3.154 E6.17795
G1 X-17.685 Y2.878 E6.20382
G1 X-18.309 Y2.449 E6.24160
G1 X-18.879 Y2.007 E6.27759
G1 X-19.431 Y1.529 E6.31402
G1 X-19.851 Y1.133 E6.34282
G1 X-20.287 Y0.678 E6.37426
G1 X-20.645 Y0.271 E6.40130
G1 X-21.058 Y-0.229 E6.43365
G1 X-21.678 Y-1.075 E6.48598
G1 X-22.032 Y-1.615 E6.51820
G1 X-22.408 Y-2.261 E6.55549
G1 X-23.009 Y-3.466 E6.62267
G1 X-23.312 Y-4.197 E6.66215
G1 X-23.567 Y-4.908 E6.69983
G1 X-23.771 Y-5.572 E6.73449
G1 X-23.939 Y-6.224 E6.76808
G1 X-24.070 Y-6.827 E6.79886
G1 X-24.171 Y-7.384 E6.82710
G1 X-24.250 Y-7.905 E6.85339
G1 X-24.322 Y-8.542 E6.88538
G1 X-24.359 Y-9.077 E6.91213
G1 X-24.384 Y-9.673 E6.94189
G1 X-24.388 Y-10.173 E6.96684
G1 X-24.379 Y-10.673 E6.99179
G1 X-24.339 Y-11.368 E7.02652
G1 X-24.247 Y-12.258 E7.07116
G1 X-24.070 Y-13.312 E7.12448
G1 X-23.966 Y-13.809 E7.14981
G1 X-23.781 Y-14.528 E7.18685
G1 X-23.567 Y-15.225 E7.22322
G1 X-23.371 Y-15.773 E7.25226
G1 X-23.125 Y-16.395 E7.28563
G1 X-22.807 Y-17.103 E7.32435
G1 X-22.444 Y-17.813 E7.36414
G1 X-22.054 Y-18.481 E7.40273
G1 X-21.665 Y-19.077 E7.43823
G1 X-21.361 Y-19.513 E7.46475
G1 X-21.049 Y-19.918 E7.49026
G1 X-20.869 Y-20.148 E7.50483
G1 X-20.379 Y-20.708 E7.54195
G1 X-19.966 Y-21.152 E7.57221
G1 X-19.460 Y-21.639 E7.60724
G1 X-18.902 Y-22.122 E7.64406
G1 X-18.491 Y-22.445 E7.67014
G1 X-17.893 Y-22.877 E7.70695
G1 X-17.284 Y-23.267 E7.74303
G1 X-16.659 Y-23.619 E7.77881
G1 X-15.543 Y-24.143 E7.84032
G1 X-14.852 Y-24.404 E7.87717
G1 X-14.169 Y-24.618 E7.91288
G1 X-13.519 Y-24.781 E7.94631
G1 X-12.984 Y-24.890 E7.97355
G1 X-12.217 Y-25.004 E8.01224
G1 X-11.485 Y-25.066 E8.04889
G1 X-10.774 Y-25.082 E8.08437
G1 X-1.769 Y-25.082 E8.53363
G1 X-1.769 Y-22.583 E8.65831
G1 X-0.583 Y-22.579 E8.71748
G1 X1.563 Y-22.580 E8.82454
G1 X1.563 Y-25.080 E8.94927
G1 X2.496 Y-25.080 E8.99582
G1 X2.496 Y-22.585 E9.12029
G1 X3.719 Y-22.575 E9.18131
G1 X4.700 Y-22.496 E9.23041
G1 X5.829 Y-22.304 E9.28754
G1 X5.830 Y-24.982 E9.42115
G1 X6.731 Y-24.839 E9.46666
G1 X6.763 Y-24.831 E9.46831
G1 X6.763 Y-22.016 E9.60875
G1 X7.667 Y-21.639 E9.65762
G1 X8.128 Y-21.417 E9.68314
G1 X8.659 Y-21.127 E9.71333
G1 X9.475 Y-20.611 E9.76150
G1 X10.096 Y-20.954 E9.79689
G1 X10.096 Y-23.645 E9.93114
G1 X10.719 Y-23.304 E9.96658
G1 X11.030 Y-23.107 E9.98494
G1 X11.030 Y-19.607 E10.15956
G1 X11.025 Y-19.305 E10.17463
G1 X11.631 Y-18.643 E10.21940
G1 X12.030 Y-18.161 E10.25062
G1 X12.648 Y-17.309 E10.30313
G1 X12.955 Y-16.829 E10.33156
G1 X13.473 Y-15.933 E10.38319
G1 X14.362 Y-16.172 E10.42912
G1 X14.362 Y-20.146 E10.62738
G1 X14.715 Y-19.703 E10.65564
G1 X15.074 Y-19.217 E10.68579
G1 X15.505 Y-18.561 E10.72495
G1 X15.869 Y-17.943 E10.76073
G1 X16.136 Y-17.451 E10.78866
G1 X16.498 Y-16.696 E10.83043
G1 X16.788 Y-16.001 E10.86800
G1 X17.008 Y-15.405 E10.89970
G1 X17.255 Y-14.631 E10.94023
G1 X17.425 Y-13.987 E10.97346
G1 X17.558 Y-13.385 E11.00422
G1 X17.727 Y-12.435 E11.05236
G1 X17.795 Y-11.872 E11.08065
G1 X17.849 Y-11.225 E11.11304
G1 X17.907 Y-10.140 E11.16725
G1 X19.075 Y-10.172 E11.22555
G1 X19.075 Y-10.351 E11.23448
G1 X22.201 Y-10.351 E11.39043
G0 F6000 X17.970 Y-9.780
G0 X13.492 Y-4.148
G0 X5.828 Y2.192
G1 F1200 X4.534 Y2.379 E11.45566
G1 X3.802 Y2.439 E11.49230
G1 X3.231 Y2.449 E11.52079
G1 X3.183 Y2.448 E11.52319
G1 X2.494 Y2.456 E11.55757
G1 X2.494 Y6.959 E11.78222
G1 X3.393 Y7.424 E11.83272
G1 X4.336 Y7.917 E11.88581
G1 X4.336 Y6.260 E11.96847
G1 X4.456 Y6.265 E11.97447
G1 X5.082 Y6.334 E12.00589
G1 X5.828 Y6.425 E12.04338
G1 X5.828 Y2.192 E12.25457
G0 F6000 X5.428 Y2.654
;TYPE:WALL-OUTER
G1 F1200 X4.574 Y2.777 E12.29761
G1 X3.827 Y2.839 E12.33501
G1 X3.231 Y2.849 E12.36475
G1 X3.181 Y2.848 E12.36724
G1 X2.894 Y2.851 E12.38156
G1 X2.894 Y6.716 E12.57439
G1 X3.579 Y7.070 E12.61285
G1 X3.936 Y7.256 E12.63294
G1 X3.936 Y5.845 E12.70333
G1 X4.473 Y5.865 E12.73014
G1 X5.130 Y5.938 E12.76312
G1 X5.428 Y5.974 E12.77810
G1 X5.428 Y2.654 E12.94373
G0 F6000 X5.728 Y2.654
G0 X6.861 Y2.155
G0 X7.161 Y2.155
G1 F1200 X7.161 Y6.445 E13.15776
G1 X7.966 Y6.792 E13.20150
G1 X8.636 Y7.146 E13.23930
G1 X9.287 Y7.558 E13.27774
G1 X9.928 Y8.037 E13.31766
G1 X9.993 Y8.087 E13.32175
G1 X10.575 Y8.607 E13.36069
G1 X11.068 Y9.125 E13.39637
G1 X11.580 Y9.749 E13.43664
G1 X12.021 Y10.383 E13.47516
G1 X12.425 Y11.076 E13.51518
G1 X12.757 Y11.767 E13.55343
G1 X13.043 Y12.511 E13.59320
G1 X13.282 Y13.319 E13.63524
G1 X13.424 Y14.021 E13.67097
G1 X13.521 Y14.783 E13.70929
G1 X13.563 Y15.674 E13.75379
G1 X13.555 Y16.072 E13.77365
G1 X13.498 Y16.779 E13.80904
G1 X13.374 Y17.582 E13.84958
G1 X13.192 Y18.341 E13.88852
G1 X12.942 Y19.104 E13.92857
G1 X12.632 Y19.840 E13.96842
G1 X12.267 Y20.542 E14.00789
G1 X11.843 Y21.216 E14.04762
G1 X11.365 Y21.858 E14.08755
G1 X10.794 Y22.503 E14.13053
G1 X10.264 Y23.006 E14.16698
G1 X9.653 Y23.509 E14.20647
G1 X9.018 Y23.950 E14.24504
G1 X8.328 Y24.352 E14.28488
G1 X7.634 Y24.686 E14.32330
G1 X6.890 Y24.972 E14.36307
G1 X6.078 Y25.211 E14.40530
G1 X5.383 Y25.351 E14.44067
G1 X4.616 Y25.450 E14.47925
G1 X3.936 Y25.482 E14.51321
G1 X3.936 Y24.069 E14.58371
G1 X3.343 Y24.389 E14.61733
G1 X2.673 Y24.703 E14.65424
G1 X1.933 Y24.984 E14.69373
G1 X1.199 Y25.200 E14.73190
G1 X0.427 Y25.359 E14.77123
G1 X-0.331 Y25.454 E14.80934
G1 X-0.971 Y25.483 E14.84130
G1 X-0.971 Y5.840 E15.82130
G1 X-0.127 Y5.894 E15.86349
G1 X0.620 Y6.003 E15.90115
G1 X1.161 Y6.111 E15.92868
G1 X1.161 Y2.859 E16.09092
G1 X0.173 Y2.848 E16.14021
G1 X-1.371 Y2.849 E16.21724
G1 X-1.371 Y5.353 E16.34217
G1 X-10.784 Y5.352 E16.81178
G1 X-11.487 Y5.334 E16.84687
G1 X-12.214 Y5.272 E16.88327
G1 X-12.916 Y5.172 E16.91865
G1 X-13.477 Y5.067 E16.94712
G1 X-14.231 Y4.883 E16.98584
G1 X-14.954 Y4.658 E17.02362
G1 X-15.595 Y4.417 E17.05779
G1 X-16.111 Y4.198 E17.08575
G1 X-16.816 Y3.855 E17.12487
G1 X-17.453 Y3.497 E17.16132
G1 X-17.898 Y3.217 E17.18755
G1 X-18.542 Y2.774 E17.22655
G1 X-19.141 Y2.310 E17.26435
G1 X-19.693 Y1.832 E17.30078
G1 X-20.135 Y1.415 E17.33110
G1 X-20.584 Y0.946 E17.36349
G1 X-20.955 Y0.525 E17.39148
G1 X-21.367 Y0.026 E17.42377
G1 X-21.683 Y-0.384 E17.44959
G1 X-22.006 Y-0.846 E17.47772
G1 X-22.361 Y-1.387 E17.51000
G1 X-22.763 Y-2.077 E17.54984
G1 X-23.000 Y-2.525 E17.57513
G1 X-23.368 Y-3.290 E17.61748
G1 X-23.689 Y-4.064 E17.65928
G1 X-23.944 Y-4.773 E17.69687
G1 X-24.153 Y-5.454 E17.73241
G1 X-24.326 Y-6.124 E17.76693
G1 X-24.459 Y-6.735 E17.79813
G1 X-24.564 Y-7.313 E17.82744
G1 X-24.645 Y-7.845 E17.85429
G1 X-24.722 Y-8.522 E17.88828
G1 X-24.758 Y-9.050 E17.91468
G1 X-24.784 Y-9.676 E17.94594
G1 X-24.788 Y-10.180 E17.97109
G1 X-24.779 Y-10.672 E17.99564
G1 X-24.737 Y-11.409 E18.03247
G1 X-24.646 Y-12.290 E18.07665
G1 X-24.565 Y-12.822 E18.10350
G1 X-24.461 Y-13.394 E18.13251
G1 X-24.353 Y-13.909 E18.15876
G1 X-24.161 Y-14.654 E18.19714
G1 X-23.950 Y-15.342 E18.23304
G1 X-23.750 Y-15.902 E18.26271
G1 X-23.496 Y-16.546 E18.29725
G1 X-23.170 Y-17.271 E18.33691
G1 X-22.794 Y-18.006 E18.37810
G1 X-22.398 Y-18.684 E18.41727
G1 X-22.000 Y-19.295 E18.45365
G1 X-21.688 Y-19.744 E18.48093
G1 X-21.364 Y-20.165 E18.50743
G1 X-20.680 Y-20.971 E18.56017
G1 X-20.258 Y-21.425 E18.59109
G1 X-19.714 Y-21.949 E18.62878
G1 X-19.162 Y-22.427 E18.66521
G1 X-18.738 Y-22.760 E18.69210
G1 X-18.123 Y-23.205 E18.72998
G1 X-17.482 Y-23.615 E18.76794
G1 X-16.855 Y-23.967 E18.80381
G1 X-16.396 Y-24.197 E18.82943
G1 X-15.702 Y-24.510 E18.86741
G1 X-14.978 Y-24.784 E18.90603
G1 X-14.280 Y-25.003 E18.94253
G1 X-13.604 Y-25.172 E18.97729
G1 X-13.049 Y-25.286 E19.00556
G1 X-12.263 Y-25.402 E19.04519
G1 X-11.512 Y-25.466 E19.08280
G1 X-10.783 Y-25.482 E19.11918
G1 X-1.369 Y-25.482 E19.58884
G1 X-1.369 Y-22.982 E19.71357
G1 X1.163 Y-22.979 E19.83989
G1 X1.163 Y-25.480 E19.96467
G1 X2.896 Y-25.480 E20.05113
G1 X2.896 Y-22.982 E20.17575
G1 X3.727 Y-22.975 E20.21721
G1 X4.231 Y-22.946 E20.24240
G1 X4.762 Y-22.892 E20.26903
G1 X5.429 Y-22.778 E20.30279
G1 X5.430 Y-25.424 E20.43480
G1 X6.274 Y-25.327 E20.47718
G1 X6.805 Y-25.232 E20.50409
G1 X7.163 Y-25.150 E20.52242
G1 X7.163 Y-22.283 E20.66545
G1 X7.838 Y-22.001 E20.70195
G1 X8.306 Y-21.776 E20.72785
G1 X8.862 Y-21.472 E20.75947
G1 X9.489 Y-21.076 E20.79647
G1 X9.696 Y-21.190 E20.80826
G1 X9.696 Y-24.285 E20.96267
G1 X10.495 Y-23.889 E21.00716
G1 X11.430 Y-23.327 E21.06158
G1 X11.430 Y-19.600 E21.24752
G1 X11.428 Y-19.458 E21.25461
G1 X11.926 Y-18.913 E21.29144
G1 X12.347 Y-18.405 E21.32436
G1 X12.635 Y-18.031 E21.34791
G1 X12.973 Y-17.543 E21.37752
G1 X13.302 Y-17.029 E21.40797
G1 X13.666 Y-16.399 E21.44427
G1 X13.962 Y-16.479 E21.45957
G1 X13.962 Y-21.208 E21.69550
G1 X14.117 Y-21.050 E21.70654
G1 X14.577 Y-20.518 E21.74163
G1 X15.023 Y-19.958 E21.77734
G1 X15.406 Y-19.440 E21.80948
G1 X15.846 Y-18.771 E21.84943
G1 X16.210 Y-18.152 E21.88526
G1 X16.497 Y-17.624 E21.91524
G1 X16.861 Y-16.865 E21.95724
G1 X17.154 Y-16.163 E21.99519
G1 X17.385 Y-15.538 E22.02843
G1 X17.639 Y-14.741 E22.07016
G1 X17.810 Y-14.098 E22.10336
G1 X17.994 Y-13.262 E22.14606
G1 X18.122 Y-12.498 E22.18471
G1 X18.192 Y-11.920 E22.21376
G1 X18.247 Y-11.264 E22.24660
G1 X18.286 Y-10.551 E22.28223
G1 X18.675 Y-10.561 E22.30164
G1 X18.675 Y-10.751 E22.31112
G1 X22.214 Y-10.751 E22.48768
G1 X22.668 Y-10.736 E22.51034
G1 X23.657 Y-10.575 E22.56033
G1 X24.022 Y-10.479 E22.57916
G1 X24.531 Y-10.272 E22.60658
G1 X24.669 Y-10.177 E22.61493
G1 X24.723 Y-10.118 E22.61892
G1 X24.746 Y-10.070 E22.62158
G1 X24.747 Y-10.060 E22.62208
G1 X24.719 Y-10.005 E22.62516
G1 X24.662 Y-9.948 E22.62918
G1 X24.525 Y-9.853 E22.63750
G1 X24.333 Y-9.762 E22.64810
G1 X23.650 Y-9.552 E22.68375
G1 X22.777 Y-9.407 E22.72790
G1 X22.524 Y-9.378 E22.74061
G1 X22.367 Y-9.379 E22.74844
G1 X18.675 Y-9.377 E22.93263
G1 X18.675 Y-9.412 E22.93438
G1 X18.289 Y-9.426 E22.95365
G1 X18.236 Y-8.678 E22.99106
G1 X18.149 Y-7.851 E23.03255
G1 X17.995 Y-6.877 E23.08174
G1 X17.875 Y-6.318 E23.11027
G1 X17.657 Y-5.454 E23.15472
G1 X17.438 Y-4.745 E23.19175
G1 X17.178 Y-4.025 E23.22994
G1 X16.868 Y-3.284 E23.27001
G1 X16.556 Y-2.629 E23.30621
G1 X16.298 Y-2.134 E23.33405
G1 X15.877 Y-1.408 E23.37592
G1 X15.448 Y-0.757 E23.41482
G1 X15.021 Y-0.172 E23.45095
G1 X14.684 Y0.259 E23.47825
G1 X14.185 Y0.838 E23.51638
G1 X13.961 Y1.071 E23.53251
G1 X13.961 Y-3.651 E23.76809
G1 X13.665 Y-3.731 E23.78339
G1 X13.306 Y-3.111 E23.81913
G1 X13.030 Y-2.678 E23.84475
G1 X12.634 Y-2.100 E23.87970
G1 X12.240 Y-1.590 E23.91186
G1 X11.779 Y-1.056 E23.94705
G1 X11.428 Y-0.670 E23.97308
G1 X11.428 Y3.199 E24.16611
G1 X10.567 Y3.718 E24.21626
G1 X9.964 Y4.032 E24.25018
G1 X9.695 Y4.152 E24.26488
G1 X9.695 Y1.061 E24.41909
G1 X9.489 Y0.947 E24.43083
G1 X8.874 Y1.330 E24.46698
G1 X8.356 Y1.616 E24.49650
G1 X7.887 Y1.847 E24.52258
G1 X7.161 Y2.155 E24.56193
G0 F6000 X7.006 Y1.632
;TYPE:SKIN
G1 F1200 X-17.553 Y-22.927 E26.29470
G0 F6000 X-17.894 Y-22.702
G1 F1200 X6.620 Y1.812 E28.02429
G0 F6000 X6.620 Y2.378
G1 F1200 X-18.222 Y-22.464 E29.77703
G0 F6000 X-18.545 Y-22.222
G1 F1200 X5.739 Y2.062 E31.49040
G0 F6000 X5.967 Y2.290
G1 F1200 X6.620 Y2.943 E31.53647
G0 F6000 X6.620 Y3.509
G1 F1200 X5.967 Y2.856 E31.58254
G0 F6000 X5.967 Y3.421
G1 F1200 X6.620 Y4.075 E31.62865
G0 F6000 X6.620 Y4.640
G1 F1200 X5.967 Y3.987 E31.67472
G0 F6000 X5.967 Y4.553
G1 F1200 X6.620 Y5.206 E31.72080
G0 F6000 X6.620 Y5.772
G1 F1200 X5.967 Y5.118 E31.76690
G0 F6000 X5.967 Y5.684
G1 F1200 X6.620 Y6.337 E31.81298
G0 F6000 X5.967 Y6.250
G1 F1200 X12.588 Y12.871 E32.28012
G0 F6000 X12.792 Y13.641
G1 F1200 X5.702 Y6.551 E32.78036
G0 F6000 X5.062 Y6.476
G1 F1200 X12.920 Y14.334 E33.33479
G0 F6000 X12.990 Y14.970
G1 F1200 X4.475 Y6.455 E33.93556
G0 F6000 X4.475 Y7.021
G1 F1200 X13.017 Y15.563 E34.53825
G0 F6000 X13.009 Y16.120
G1 F1200 X4.475 Y7.587 E35.14033
G0 F6000 X4.461 Y8.138
G1 F1200 X12.967 Y16.644 E35.74048
G0 F6000 X12.896 Y17.139
G1 F1200 X3.285 Y7.528 E36.41859
G0 F6000 X2.353 Y6.596
G1 F1200 X1.701 Y5.943 E36.46462
G0 F6000 X1.701 Y5.378
G1 F1200 X2.353 Y6.030 E36.51062
G0 F6000 X2.353 Y5.465
G1 F1200 X1.701 Y4.812 E36.55666
G0 F6000 X1.701 Y4.246
G1 F1200 X2.353 Y4.899 E36.60270
G0 F6000 X2.353 Y4.333
G1 F1200 X1.701 Y3.681 E36.64870
G0 F6000 X1.701 Y3.115
G1 F1200 X2.353 Y3.768 E36.69474
G0 F6000 X2.353 Y3.202
G1 F1200 X1.701 Y2.549 E36.74078
G0 F6000 X1.475 Y2.323
G1 F1200 X-20.824 Y-19.975 E38.31406
G0 F6000 X-21.071 Y-19.657
G1 F1200 X0.906 Y2.320 E39.86465
G0 F6000 X0.337 Y2.317
G1 F1200 X-21.315 Y-19.335 E41.39232
G0 F6000 X-21.546 Y-19.001
G1 F1200 X-0.229 Y2.315 E42.89631
G0 F6000 X-0.798 Y2.312
G1 F1200 X-21.771 Y-18.659 E44.37600
G0 F6000 X-21.989 Y-18.312
G1 F1200 X-1.366 Y2.310 E45.83103
G0 F6000 X-1.910 Y2.332
G1 F1200 X-22.198 Y-17.955 E47.26242
G0 F6000 X-22.400 Y-17.592
G1 F1200 X-1.910 Y2.897 E48.70807
G0 F6000 X-1.910 Y3.463
G1 F1200 X-22.591 Y-17.217 E50.16719
