M31 A132
;Generated with Cura_SteamEngine 15.04.4
;startGCode
M109 S190
M300
M206 X500
M107
G28
G92 E
G1 X-98.0 Y-20.0 Z5.0 F3000
G1 Y-70.0 Z0.3
G1 X-98.0 Y44.0 F500 E27
G92 E

;BEESOFT SPECIFIC
M642 W1.04


;Layer count: 151
;LAYER:0
M107
G0 F6000 X17.967 Y-9.915 Z0.300
G0 X21.263 Y-9.949
;TYPE:FILL
G1 F1200 X21.492 Y-10.178 E0.01680
G0 F6000 X21.674 Y-9.812
;TYPE:WALL-INNER
G1 F1200 X19.075 Y-9.810 E0.15165
G1 X19.075 Y-9.936 E0.15819
G1 X19.020 Y-9.938 E0.16105
G1 X19.075 Y-9.939 E0.16390
G1 X19.075 Y-10.318 E0.18357
G1 X22.495 Y-10.319 E0.36102
G1 X23.108 Y-10.240 E0.39309
G1 X23.777 Y-10.086 E0.42870
G1 X23.846 Y-10.067 E0.43242
G1 X23.148 Y-9.898 E0.46968
G1 X22.596 Y-9.819 E0.49861
G1 X22.509 Y-9.811 E0.50315
G1 X21.674 Y-9.812 E0.54647
G0 F6000 X17.902 Y-9.913
G1 F1200 X17.842 Y-8.876 E0.60037
G1 X17.787 Y-8.248 E0.63308
G1 X17.727 Y-7.736 E0.65982
G1 X17.602 Y-6.983 E0.69943
G1 X17.465 Y-6.342 E0.73344
G1 X17.258 Y-5.537 E0.77656
G1 X17.035 Y-4.823 E0.81538
G1 X16.779 Y-4.122 E0.85410
G1 X16.586 Y-3.656 E0.88027
G1 X16.248 Y-2.920 E0.92229
G1 X15.888 Y-2.227 E0.96281
G1 X15.502 Y-1.572 E1.00226
G1 X15.124 Y-0.998 E1.03792
G1 X14.753 Y-0.484 E1.07081
G1 X14.361 Y0.011 E1.10357
G1 X14.361 Y-3.971 E1.31018
G1 X13.476 Y-4.212 E1.35777
G1 X12.832 Y-3.116 E1.42373
G1 X12.542 Y-2.673 E1.45120
G1 X12.044 Y-1.993 E1.49493
G1 X11.440 Y-1.280 E1.54342
G1 X11.028 Y-0.846 E1.57447
G1 X11.028 Y2.971 E1.77251
G1 X10.301 Y3.401 E1.81634
G1 X10.095 Y3.507 E1.82836
G1 X10.095 Y0.812 E1.96819
G1 X9.474 Y0.469 E2.00500
G1 X8.685 Y0.968 E2.05344
G1 X8.167 Y1.255 E2.08417
G1 X7.668 Y1.498 E2.11296
G1 X6.761 Y1.874 E2.16391
G1 X6.761 Y6.708 E2.41472
G1 X7.775 Y7.145 E2.47201
G1 X8.419 Y7.483 E2.50975
G1 X9.007 Y7.853 E2.54580
G1 X9.624 Y8.308 E2.58557
G1 X10.207 Y8.815 E2.62566
G1 X10.306 Y8.904 E2.63257
G1 X10.741 Y9.363 E2.66538
G1 X10.826 Y9.451 E2.67173
G1 X11.215 Y9.932 E2.70383
G1 X11.665 Y10.572 E2.74442
G1 X12.038 Y11.204 E2.78250
G1 X12.373 Y11.892 E2.82220
G1 X12.638 Y12.572 E2.86007
G1 X12.856 Y13.289 E2.89895
G1 X13.014 Y14.014 E2.93745
G1 X13.118 Y14.788 E2.97797
G1 X13.163 Y15.677 E3.02416
G1 X13.106 Y16.665 E3.07551
G1 X12.991 Y17.446 E3.11647
G1 X12.824 Y18.162 E3.15461
G1 X12.583 Y18.916 E3.19569
G1 X12.290 Y19.622 E3.23535
G1 X12.241 Y19.736 E3.24178
G1 X11.952 Y20.281 E3.27379
G1 X11.544 Y20.941 E3.31405
G1 X11.102 Y21.541 E3.35272
G1 X10.589 Y22.131 E3.39328
G1 X10.037 Y22.670 E3.43331
G1 X9.950 Y22.753 E3.43955
G1 X9.465 Y23.145 E3.47191
G1 X8.834 Y23.591 E3.51200
G1 X8.197 Y23.967 E3.55038
G1 X7.509 Y24.302 E3.59009
G1 X6.830 Y24.567 E3.62791
G1 X6.112 Y24.784 E3.66682
G1 X5.387 Y24.942 E3.70532
G1 X4.613 Y25.047 E3.74585
G1 X4.336 Y25.067 E3.76026
G1 X4.336 Y23.442 E3.84458
G1 X2.539 Y24.324 E3.94844
G1 X1.829 Y24.597 E3.98791
G1 X1.113 Y24.809 E4.02665
G1 X0.406 Y24.955 E4.06411
G1 X-0.343 Y25.052 E4.10330
G1 X-0.571 Y25.063 E4.11514
G1 X-0.571 Y6.265 E5.09049
G1 X-0.247 Y6.286 E5.10734
G1 X0.515 Y6.392 E5.14725
G1 X1.561 Y6.593 E5.20252
G1 X1.561 Y2.438 E5.41810
G1 X-1.771 Y2.439 E5.59099
G1 X-1.771 Y4.942 E5.72086
G1 X-10.773 Y4.944 E6.18793
G1 X-11.431 Y4.927 E6.22209
G1 X-11.494 Y4.927 E6.22536
G1 X-12.089 Y4.877 E6.25634
G1 X-12.770 Y4.786 E6.29198
G1 X-13.449 Y4.657 E6.32785
G1 X-14.080 Y4.501 E6.36157
G1 X-14.714 Y4.308 E6.39596
G1 X-15.349 Y4.078 E6.43100
G1 X-15.934 Y3.830 E6.46397
G1 X-16.549 Y3.532 E6.49943
G1 X-17.100 Y3.230 E6.53203
G1 X-17.671 Y2.878 E6.56683
G1 X-18.207 Y2.511 E6.60054
G1 X-18.715 Y2.126 E6.63361
G1 X-19.211 Y1.712 E6.66713
G1 X-19.690 Y1.274 E6.70081
G1 X-20.365 Y0.585 E6.75085
G1 X-20.835 Y0.046 E6.78796
G1 X-21.219 Y-0.441 E6.82014
G1 X-21.655 Y-1.043 E6.85871
G1 X-22.054 Y-1.659 E6.89679
G1 X-22.403 Y-2.259 E6.93280
G1 X-22.701 Y-2.830 E6.96622
G1 X-22.986 Y-3.435 E7.00092
G1 X-23.228 Y-4.011 E7.03334
G1 X-23.457 Y-4.622 E7.06719
G1 X-23.644 Y-5.182 E7.09783
G1 X-23.814 Y-5.759 E7.12904
G1 X-23.948 Y-6.281 E7.15700
G1 X-24.059 Y-6.808 E7.18494
G1 X-24.186 Y-7.520 E7.22247
G1 X-24.266 Y-8.110 E7.25336
G1 X-24.322 Y-8.607 E7.27931
G1 X-24.355 Y-9.117 E7.30583
G1 X-24.383 Y-10.061 E7.35483
G1 X-24.376 Y-10.633 E7.38451
G1 X-24.347 Y-11.148 E7.41127
G1 X-24.300 Y-11.730 E7.44157
G1 X-24.238 Y-12.286 E7.47060
G1 X-24.148 Y-12.850 E7.50023
G1 X-23.960 Y-13.804 E7.55068
G1 X-23.813 Y-14.377 E7.58138
G1 X-23.644 Y-14.954 E7.61257
G1 X-23.458 Y-15.513 E7.64314
G1 X-23.227 Y-16.129 E7.67727
G1 X-22.747 Y-17.216 E7.73893
G1 X-22.413 Y-17.857 E7.77643
G1 X-21.691 Y-19.036 E7.84816
G1 X-21.294 Y-19.597 E7.88382
G1 X-20.853 Y-20.159 E7.92089
G1 X-20.487 Y-20.580 E7.94983
G1 X-19.652 Y-21.445 E8.01221
G1 X-19.103 Y-21.940 E8.05057
G1 X-18.555 Y-22.386 E8.08723
G1 X-17.991 Y-22.799 E8.12350
G1 X-17.409 Y-23.179 E8.15956
G1 X-16.808 Y-23.528 E8.19562
G1 X-16.191 Y-23.845 E8.23161
G1 X-15.556 Y-24.128 E8.26769
G1 X-14.924 Y-24.371 E8.30282
G1 X-14.177 Y-24.611 E8.34353
G1 X-13.595 Y-24.759 E8.37469
G1 X-12.939 Y-24.891 E8.40941
G1 X-12.233 Y-24.996 E8.44644
G1 X-11.571 Y-25.054 E8.48092
G1 X-10.846 Y-25.071 E8.51855
G1 X-10.775 Y-25.075 E8.52224
G1 X-1.769 Y-25.074 E8.98952
G1 X-1.769 Y-22.572 E9.11934
G1 X1.563 Y-22.571 E9.29222
G1 X1.563 Y-25.073 E9.42204
G1 X2.496 Y-25.073 E9.47045
G1 X2.496 Y-22.572 E9.60022
G1 X3.718 Y-22.570 E9.66362
G1 X4.662 Y-22.493 E9.71276
G1 X5.829 Y-22.299 E9.77415
G1 X5.830 Y-24.977 E9.91310
G1 X6.721 Y-24.836 E9.95990
G1 X6.763 Y-24.827 E9.96213
G1 X6.763 Y-22.006 E10.10850
G1 X7.663 Y-21.633 E10.15905
G1 X8.177 Y-21.384 E10.18868
G1 X8.678 Y-21.106 E10.21841
G1 X9.474 Y-20.601 E10.26732
G1 X10.096 Y-20.943 E10.30415
G1 X10.096 Y-23.640 E10.44409
G1 X10.796 Y-23.252 E10.48562
G1 X11.030 Y-23.101 E10.50007
G1 X11.029 Y-19.292 E10.69770
G1 X11.765 Y-18.481 E10.75452
G1 X12.283 Y-17.824 E10.79793
G1 X12.748 Y-17.148 E10.84050
G1 X13.022 Y-16.704 E10.86758
G1 X13.471 Y-15.921 E10.91441
G1 X14.362 Y-16.159 E10.96226
G1 X14.362 Y-20.143 E11.16897
G1 X15.103 Y-19.168 E11.23251
G1 X15.512 Y-18.544 E11.27122
G1 X15.854 Y-17.966 E11.30607
G1 X16.156 Y-17.396 E11.33954
G1 X16.451 Y-16.781 E11.37493
G1 X16.697 Y-16.207 E11.40733
G1 X16.931 Y-15.592 E11.44147
G1 X17.129 Y-15.008 E11.47347
G1 X17.293 Y-14.465 E11.50290
G1 X17.433 Y-13.936 E11.53129
G1 X17.550 Y-13.387 E11.56042
G1 X17.645 Y-12.885 E11.58693
G1 X17.785 Y-11.891 E11.63901
G1 X17.854 Y-10.992 E11.68579
G1 X17.902 Y-9.913 E11.74183
G0 F6000 X5.828 Y2.185
G1 F1200 X4.336 Y2.392 E11.81999
G1 X3.874 Y2.427 E11.84403
G1 X3.232 Y2.439 E11.87735
G1 X3.104 Y2.437 E11.88399
G1 X2.494 Y2.467 E11.91568
G1 X2.494 Y6.959 E12.14875
G1 X4.336 Y7.912 E12.25635
G1 X4.336 Y6.260 E12.34207
G1 X4.455 Y6.265 E12.34825
G1 X5.022 Y6.328 E12.37785
G1 X5.828 Y6.423 E12.41996
G1 X5.828 Y2.185 E12.63985
G0 F6000 X5.428 Y2.644
;TYPE:WALL-OUTER
G1 F1200 X4.373 Y2.791 E12.69512
G1 X3.891 Y2.827 E12.72020
G1 X3.387 Y2.837 E12.74635
G1 X3.231 Y2.839 E12.75445
G1 X3.111 Y2.837 E12.76068
G1 X2.894 Y2.848 E12.77195
G1 X2.894 Y6.716 E12.97264
G1 X3.936 Y7.255 E13.03351
G1 X3.936 Y5.845 E13.10667
G1 X4.473 Y5.865 E13.13456
G1 X5.069 Y5.931 E13.16567
G1 X5.428 Y5.973 E13.18442
G1 X5.428 Y2.644 E13.35715
G0 F6000 X5.389 Y2.347
G0 X6.861 Y2.141
G0 X7.161 Y2.141
G1 F1200 X7.161 Y6.445 E13.58047
G1 X7.951 Y6.785 E13.62509
G1 X8.605 Y7.129 E13.66343
G1 X8.676 Y7.168 E13.66764
G1 X9.235 Y7.525 E13.70205
G1 X9.877 Y7.998 E13.74343
G1 X10.475 Y8.518 E13.78454
G1 X11.123 Y9.183 E13.83272
G1 X11.537 Y9.695 E13.86688
G1 X11.991 Y10.340 E13.90781
G1 X12.069 Y10.453 E13.91493
G1 X12.385 Y11.005 E13.94794
G1 X12.734 Y11.721 E13.98926
G1 X12.797 Y11.854 E13.99690
G1 X13.015 Y12.435 E14.02910
G1 X13.243 Y13.188 E14.06992
G1 X13.409 Y13.943 E14.11003
G1 X13.515 Y14.732 E14.15133
G1 X13.563 Y15.661 E14.19960
G1 X13.555 Y16.072 E14.22093
G1 X13.504 Y16.712 E14.25424
G1 X13.386 Y17.513 E14.29625
G1 X13.207 Y18.276 E14.33691
G1 X12.961 Y19.047 E14.37891
G1 X12.657 Y19.780 E14.42008
G1 X12.295 Y20.487 E14.46129
G1 X11.878 Y21.161 E14.50241
G1 X11.413 Y21.794 E14.54317
G1 X10.888 Y22.398 E14.58469
G1 X10.313 Y22.959 E14.62637
G1 X9.705 Y23.465 E14.66741
G1 X9.061 Y23.920 E14.70833
G1 X8.948 Y23.998 E14.71545
G1 X8.393 Y24.316 E14.74864
G1 X7.680 Y24.663 E14.78978
G1 X7.547 Y24.726 E14.79742
G1 X6.959 Y24.946 E14.82999
G1 X6.214 Y25.171 E14.87037
G1 X5.452 Y25.338 E14.91085
G1 X4.666 Y25.444 E14.95200
G1 X4.539 Y25.460 E14.95864
G1 X3.936 Y25.484 E14.98995
G1 X3.936 Y24.084 E15.06259
G1 X2.703 Y24.689 E15.13385
G1 X1.967 Y24.972 E15.17477
G1 X1.155 Y25.212 E15.21870
G1 X0.466 Y25.351 E15.25517
G1 X-0.297 Y25.450 E15.29509
G1 X-0.971 Y25.482 E15.33010
G1 X-0.971 Y5.840 E16.34924
G1 X-0.206 Y5.888 E16.38901
G1 X0.584 Y5.998 E16.43040
G1 X1.161 Y6.109 E16.46089
G1 X1.161 Y2.838 E16.63060
G1 X-1.371 Y2.839 E16.76198
G1 X-1.371 Y5.342 E16.89185
G1 X-10.784 Y5.344 E17.38025
G1 X-11.436 Y5.327 E17.41409
G1 X-11.515 Y5.327 E17.41819
G1 X-12.136 Y5.275 E17.45052
G1 X-12.832 Y5.181 E17.48697
G1 X-13.524 Y5.050 E17.52351
G1 X-14.196 Y4.884 E17.55942
G1 X-14.840 Y4.688 E17.59435
G1 X-15.487 Y4.453 E17.63007
G1 X-16.110 Y4.190 E17.66515
G1 X-16.724 Y3.892 E17.70057
G1 X-17.308 Y3.572 E17.73512
G1 X-17.880 Y3.219 E17.76999
G1 X-18.439 Y2.837 E17.80512
G1 X-18.972 Y2.433 E17.83982
G1 X-19.477 Y2.010 E17.87400
G1 X-19.974 Y1.556 E17.90893
G1 X-20.651 Y0.865 E17.95912
G1 X-21.153 Y0.289 E17.99877
G1 X-21.533 Y-0.193 E18.03061
G1 X-21.984 Y-0.815 E18.07048
G1 X-22.399 Y-1.456 E18.11010
G1 X-22.749 Y-2.058 E18.14623
G1 X-23.062 Y-2.657 E18.18130
G1 X-23.348 Y-3.264 E18.21611
G1 X-23.604 Y-3.873 E18.25039
G1 X-23.829 Y-4.474 E18.28369
G1 X-24.030 Y-5.075 E18.31657
G1 X-24.198 Y-5.646 E18.34745
G1 X-24.339 Y-6.198 E18.37701
G1 X-24.454 Y-6.744 E18.40596
G1 X-24.583 Y-7.468 E18.44412
G1 X-24.663 Y-8.056 E18.47491
G1 X-24.722 Y-8.590 E18.50278
G1 X-24.754 Y-9.091 E18.52883
G1 X-24.777 Y-9.595 E18.55501
G1 X-24.783 Y-10.066 E18.57945
G1 X-24.776 Y-10.641 E18.60929
G1 X-24.745 Y-11.185 E18.63756
G1 X-24.699 Y-11.756 E18.66728
G1 X-24.633 Y-12.349 E18.69824
G1 X-24.543 Y-12.913 E18.72787
G1 X-24.353 Y-13.882 E18.77911
G1 X-24.197 Y-14.490 E18.81168
G1 X-24.030 Y-15.060 E18.84249
G1 X-23.830 Y-15.661 E18.87536
G1 X-23.604 Y-16.264 E18.90877
G1 X-23.408 Y-16.740 E18.93548
G1 X-23.102 Y-17.401 E18.97327
G1 X-22.764 Y-18.050 E19.01124
G1 X-22.509 Y-18.489 E19.03758
G1 X-22.030 Y-19.249 E19.08419
G1 X-21.619 Y-19.831 E19.12116
G1 X-21.155 Y-20.422 E19.16015
G1 X-20.789 Y-20.843 E19.18909
G1 X-19.930 Y-21.733 E19.25327
G1 X-19.371 Y-22.237 E19.29232
G1 X-18.801 Y-22.702 E19.33049
G1 X-18.214 Y-23.131 E19.36822
G1 X-17.619 Y-23.520 E19.40510
G1 X-17.001 Y-23.879 E19.44218
G1 X-16.367 Y-24.204 E19.47915
G1 X-15.711 Y-24.497 E19.51643
G1 X-15.050 Y-24.750 E19.55315
G1 X-14.288 Y-24.996 E19.59470
G1 X-13.694 Y-25.146 E19.62648
G1 X-13.600 Y-25.170 E19.63152
G1 X-13.007 Y-25.286 E19.66287
G1 X-12.293 Y-25.391 E19.70031
G1 X-12.209 Y-25.404 E19.70472
G1 X-11.593 Y-25.454 E19.73679
G1 X-10.861 Y-25.471 E19.77478
G1 X-10.777 Y-25.475 E19.77915
G1 X-1.369 Y-25.474 E20.26729
G1 X-1.369 Y-22.972 E20.39711
G1 X1.163 Y-22.971 E20.52848
G1 X1.163 Y-25.472 E20.65825
G1 X2.896 Y-25.472 E20.74816
G1 X2.896 Y-22.971 E20.87793
G1 X3.726 Y-22.970 E20.92100
G1 X4.230 Y-22.940 E20.94719
G1 X5.429 Y-22.771 E21.01002
G1 X5.430 Y-25.417 E21.14731
G1 X6.274 Y-25.322 E21.19138
G1 X6.794 Y-25.230 E21.21878
G1 X7.163 Y-25.143 E21.23845
G1 X7.163 Y-22.273 E21.38736
G1 X7.838 Y-21.993 E21.42528
G1 X8.358 Y-21.741 E21.45526
G1 X8.881 Y-21.451 E21.48629
G1 X9.489 Y-21.066 E21.52363
G1 X9.696 Y-21.180 E21.53589
G1 X9.696 Y-24.277 E21.69658
G1 X10.496 Y-23.883 E21.74285
G1 X11.011 Y-23.589 E21.77362
G1 X11.430 Y-23.319 E21.79948
G1 X11.429 Y-19.447 E22.00038
G1 X12.066 Y-18.745 E22.04957
G1 X12.610 Y-18.054 E22.09520
G1 X13.094 Y-17.350 E22.13952
G1 X13.360 Y-16.919 E22.16580
G1 X13.665 Y-16.387 E22.19762
G1 X13.962 Y-16.466 E22.21357
G1 X13.962 Y-21.199 E22.45914
G1 X14.580 Y-20.510 E22.50716
G1 X14.990 Y-19.999 E22.54116
G1 X15.438 Y-19.387 E22.58051
G1 X15.842 Y-18.771 E22.61873
G1 X16.200 Y-18.166 E22.65521
G1 X16.520 Y-17.562 E22.69067
G1 X16.870 Y-16.832 E22.73268
G1 X17.071 Y-16.349 E22.75982
G1 X17.305 Y-15.734 E22.79396
G1 X17.506 Y-15.143 E22.82635
G1 X17.680 Y-14.567 E22.85757
G1 X17.825 Y-14.019 E22.88699
G1 X17.943 Y-13.462 E22.91653
G1 X18.038 Y-12.960 E22.94304
G1 X18.122 Y-12.455 E22.96960
G1 X18.183 Y-11.932 E22.99692
G1 X18.253 Y-11.010 E23.04490
G1 X18.284 Y-10.322 E23.08063
G1 X18.675 Y-10.330 E23.10092
G1 X18.675 Y-10.718 E23.12105
G1 X22.523 Y-10.719 E23.32071
G1 X23.176 Y-10.635 E23.35487
G1 X23.867 Y-10.476 E23.39166
G1 X24.025 Y-10.432 E23.40017
G1 X24.322 Y-10.315 E23.41673
G1 X24.510 Y-10.207 E23.42798
G1 X24.623 Y-10.094 E23.43627
G1 X24.630 Y-10.054 E23.43838
G1 X24.506 Y-9.921 E23.44782
G1 X24.320 Y-9.815 E23.45892
G1 X24.021 Y-9.697 E23.47560
G1 X23.229 Y-9.505 E23.51789
G1 X22.647 Y-9.422 E23.54839
G1 X18.675 Y-9.410 E23.75448
G1 X18.675 Y-9.549 E23.76169
G1 X18.288 Y-9.561 E23.78178
G1 X18.240 Y-8.836 E23.81948
G1 X18.184 Y-8.201 E23.85256
G1 X18.122 Y-7.676 E23.87999
G1 X17.995 Y-6.911 E23.92022
G1 X17.831 Y-6.144 E23.96092
G1 X17.640 Y-5.418 E23.99987
G1 X17.415 Y-4.697 E24.03906
G1 X17.158 Y-3.993 E24.07794
G1 X16.953 Y-3.499 E24.10569
G1 X16.603 Y-2.736 E24.14925
G1 X16.233 Y-2.024 E24.19088
G1 X15.848 Y-1.370 E24.23026
G1 X15.449 Y-0.764 E24.26790
G1 X15.079 Y-0.251 E24.30072
G1 X14.612 Y0.338 E24.33972
G1 X14.222 Y0.782 E24.37039
G1 X13.961 Y1.063 E24.39029
G1 X13.961 Y-3.666 E24.63565
G1 X13.666 Y-3.746 E24.65151
G1 X13.167 Y-2.897 E24.70261
G1 X12.874 Y-2.450 E24.73034
G1 X12.354 Y-1.740 E24.77600
G1 X11.428 Y-0.687 E24.84876
G1 X11.428 Y3.190 E25.04992
G1 X11.006 Y3.459 E25.07589
G1 X10.494 Y3.751 E25.10647
G1 X9.964 Y4.024 E25.13740
G1 X9.695 Y4.144 E25.15269
G1 X9.695 Y1.048 E25.31332
G1 X9.488 Y0.934 E25.32559
G1 X8.883 Y1.316 E25.36271
G1 X8.365 Y1.603 E25.39344
G1 X7.831 Y1.863 E25.42425
G1 X7.161 Y2.141 E25.46189
G0 F6000 X6.997 Y1.623
;TYPE:SKIN
G1 F1200 X-17.546 Y-22.920 E27.26280
G0 F6000 X-17.889 Y-22.697
G1 F1200 X6.620 Y1.812 E29.06121
G0 F6000 X6.620 Y2.378
G1 F1200 X-18.216 Y-22.459 E30.88365
G0 F6000 X-18.539 Y-22.216
G1 F1200 X5.732 Y2.055 E32.66460
G0 F6000 X5.967 Y2.290
G1 F1200 X6.620 Y2.943 E32.71252
G0 F6000 X6.620 Y3.509
G1 F1200 X5.967 Y2.856 E32.76043
G0 F6000 X5.967 Y3.421
G1 F1200 X6.620 Y4.075 E32.80838
G0 F6000 X6.620 Y4.640
G1 F1200 X5.967 Y3.987 E32.85630
G0 F6000 X5.967 Y4.553
G1 F1200 X6.620 Y5.206 E32.90422
G0 F6000 X6.620 Y5.772
G1 F1200 X5.967 Y5.118 E32.95217
G0 F6000 X5.967 Y5.684
G1 F1200 X6.620 Y6.337 E33.00008
G0 F6000 X5.967 Y6.250
G1 F1200 X12.580 Y12.863 E33.48533
G0 F6000 X12.788 Y13.637
G1 F1200 X5.699 Y6.548 E34.00550
G0 F6000 X5.060 Y6.474
G1 F1200 X12.916 Y14.330 E34.58196
G0 F6000 X12.987 Y14.967
G1 F1200 X4.475 Y6.455 E35.20655
G0 F6000 X4.475 Y7.021
G1 F1200 X13.017 Y15.562 E35.83330
G0 F6000 X12.997 Y16.108
G1 F1200 X4.475 Y7.587 E36.45859
G0 F6000 X4.452 Y8.129
G1 F1200 X12.966 Y16.643 E37.08333
G0 F6000 X12.894 Y17.137
G1 F1200 X3.282 Y7.525 E37.78863
G0 F6000 X2.353 Y6.596
G1 F1200 X1.700 Y5.943 E37.83655
G0 F6000 X1.700 Y6.508
G1 F1200 X12.807 Y17.616 E38.65159
G0 F6000 X12.701 Y18.075
G1 F1200 X1.313 Y6.687 E39.48721
G0 F6000 X0.613 Y6.552
G1 F1200 X12.566 Y18.506 E40.36433
G0 F6000 X12.424 Y18.929
G1 F1200 X-0.050 Y6.454 E41.27968
G0 F6000 X-0.430 Y6.640
G1 F1200 X12.258 Y19.329 E42.21073
G0 F6000 X12.087 Y19.724
G1 F1200 X-0.430 Y7.206 E43.12924
G0 F6000 X-0.430 Y7.771
G1 F1200 X11.892 Y20.094 E44.03343
G0 F6000 X11.682 Y20.450
G1 F1200 X-0.430 Y8.337 E44.92222
G0 F6000 X-0.430 Y8.903
G1 F1200 X11.467 Y20.800 E45.79519
G0 F6000 X11.230 Y21.130
G1 F1200 X-0.430 Y9.468 E46.65085
G0 F6000 X-0.430 Y10.034
G1 F1200 X10.990 Y21.455 E47.48886
G0 F6000 X10.727 Y21.758
G1 F1200 X-0.430 Y10.600 E48.30757
G0 F6000 X-0.430 Y11.165
G1 F1200 X10.461 Y22.058 E49.10680
G0 F6000 X10.175 Y22.337
G1 F1200 X-0.430 Y11.731 E49.88501
G0 F6000 X-0.430 Y12.297
G1 F1200 X9.888 Y22.616 E50.64215
G0 F6000 X9.577 Y22.871
